; generated by PrusaSlicer 2.7.3+win64 on 2024-04-05 at 12:18:31 UTC


;
;
; 

; external perimeters extrusion width = 0.45mm
; perimeters extrusion width = 0.45mm
; infill extrusion width = 0.45mm
; solid infill extrusion width = 0.45mm
; top infill extrusion width = 0.40mm
; support material extrusion width = 0.35mm
; first layer extrusion width = 0.42mm

M73 P0 R63
M73 C63
M73 Q0 S64
M73 D64
M201 X1000 Y1000 Z200 E5000 ; sets maximum accelerations, mm/sec^2
M203 X200 Y200 Z12 E120 ; sets maximum feedrates, mm / sec
M204 S1250 T1250 ; sets acceleration (S) and retract acceleration (R), mm/sec^2
M205 X8.00 Y8.00 Z0.40 E4.50 ; sets the jerk limits, mm/sec
M205 S0 T0 ; sets the minimum extruding and travel feed rate, mm/sec

; printing object 98_Cab_Red id:0 copy 0
; stop printing object 98_Cab_Red id:0 copy 0

;TYPE:Custom
M862.3 P "MK3S" ; printer model check
M862.1 P0.4 ; nozzle diameter check
M115 U3.13.3 ; tell printer latest fw version
G90 ; use absolute coordinates
M83 ; extruder relative mode
M104 S215 ; set extruder temp
M140 S60 ; set bed temp
M190 S60 ; wait for bed temp
M109 S215 ; wait for extruder temp
G28 W ; home all without mesh bed level
G80 X94.3637 Y86.4472 W43.3172 H40.7031 ; mesh bed levelling

G1 Z0.2 F720
G1 Y-3 F1000 ; go outside print area
G92 E0
G1 X60 E9 F1000 ; intro line
G1 X100 E12.5 F1000 ; intro line

G92 E0
M221 S95

; Don't change E values below. Excessive value can damage the printer.

M907 E538 ; set extruder motor current
G21 ; set units to millimeters
G90 ; use absolute coordinates
M83 ; use relative distances for extrusion

M900 K0.05 ; Filament gcode LA 1.5
M900 K30 ; Filament gcode LA 1.0




M107
;LAYER_CHANGE
;Z:0.2
;HEIGHT:0.2
G1 E-.8 F2100
G1 Z.6 F720
G1 X94.944 Y87.706 F10800
G1 Z.2 F720
G1 E.8 F2100
M204 S800
;TYPE:Skirt/Brim
;WIDTH:0.42
G1 F1200
G1 X95.99 Y86.829 E.0428
G1 X96.929 Y86.636 E.03006
M73 D63
G1 X135.115 Y86.636 E1.1973
G1 X136.422 Y87.027 E.04277
G1 X137.299 Y88.073 E.0428
G1 X137.492 Y89.013 E.03009
G1 X137.492 Y124.585 E1.11534
G1 X137.101 Y125.892 E.04277
G1 X136.055 Y126.768 E.04278
G1 X135.115 Y126.962 E.03009
G1 X96.929 Y126.962 E1.1973
G1 X95.622 Y126.57 E.04278
G1 X94.746 Y125.524 E.04278
G1 X94.552 Y124.585 E.03006
G1 X94.552 Y89.013 E1.11534
G1 X94.927 Y87.763 E.04092
M204 S1000
;WIPE_START
G1 F8640
G1 X94.944 Y87.706 E-.01373
G1 X95.99 Y86.829 E-.31518
G1 X96.929 Y86.636 E-.22135
G1 X98.011 Y86.636 E-.24974
;WIPE_END
G1 Z.6 F720
; printing object 98_Cab_Red id:0 copy 0
G1 X131.895 Y119.334 F10800
G1 Z.2 F720
G1 E.8 F2100
M204 S800
;TYPE:Support material interface
;WIDTH:0.35
G1 F1200
G1 X132.172 Y119.334 E.00707
G1 X132.172 Y107.799 E.29453
G1 X131.742 Y107.799 E.01098
G1 X131.742 Y119.334 E.29453
G1 X131.235 Y119.334 E.01295
G1 X131.235 Y115.771 E.09098
G1 X131.323 Y115.484 E.00766
M204 S1000
;WIPE_START
G1 F8640
G1 X131.235 Y115.771 E-.06931
G1 X131.235 Y118.936 E-.73069
;WIPE_END
G1 Z.6 F720
G1 X130.989 Y116.497 F10800
G1 Z.2 F720
G1 E.8 F2100
M204 S800
G1 F1200
G1 X130.728 Y116.835 E.0109
G1 X130.728 Y119.334 E.06381
G1 X130.221 Y119.334 E.01295
G1 X130.221 Y117.417 E.04895
G1 X130.06 Y117.556 E.00543
G1 X129.713 Y117.648 E.00917
G1 X129.713 Y119.334 E.04305
G1 X129.206 Y119.334 E.01295
G1 X129.206 Y117.648 E.04305
G1 X128.699 Y117.649 E.01295
G1 X128.699 Y119.334 E.04302
G1 X128.192 Y119.334 E.01295
G1 X128.192 Y117.649 E.04302
G1 X127.685 Y117.65 E.01295
G1 X127.685 Y119.334 E.043
G1 X127.178 Y119.334 E.01295
G1 X127.178 Y117.65 E.043
G1 X126.671 Y117.65 E.01295
G1 X126.671 Y119.334 E.043
G1 X126.164 Y119.334 E.01295
G1 X126.164 Y117.65 E.043
G1 X125.657 Y117.651 E.01295
G1 X125.657 Y119.334 E.04297
G1 X125.15 Y119.334 E.01295
G1 X125.15 Y117.651 E.04297
G1 X124.643 Y117.651 E.01295
G1 X124.643 Y119.334 E.04297
G1 X124.136 Y119.334 E.01295
G1 X124.136 Y117.651 E.04297
G1 X123.628 Y117.651 E.01297
G1 X123.628 Y119.334 E.04297
G1 X123.121 Y119.334 E.01295
G1 X123.121 Y117.652 E.04295
G1 X122.614 Y117.652 E.01295
G1 X122.614 Y119.334 E.04295
G1 X122.107 Y119.334 E.01295
G1 X122.107 Y117.652 E.04295
G1 X121.6 Y117.652 E.01295
G1 X121.6 Y119.334 E.04295
G1 X121.093 Y119.334 E.01295
G1 X121.093 Y117.652 E.04295
G1 X120.586 Y117.653 E.01295
G1 X120.586 Y119.334 E.04292
G1 X120.079 Y119.334 E.01295
G1 X120.079 Y117.653 E.04292
G1 X119.572 Y117.653 E.01295
G1 X119.572 Y119.334 E.04292
G1 X119.065 Y119.334 E.01295
G1 X119.065 Y117.653 E.04292
G1 X118.558 Y117.653 E.01295
G1 X118.558 Y119.334 E.04292
G1 X118.051 Y119.334 E.01295
G1 X118.051 Y117.654 E.0429
G1 X117.544 Y117.654 E.01295
G1 X117.544 Y119.334 E.0429
G1 X117.036 Y119.334 E.01297
G1 X117.036 Y117.654 E.0429
G1 X116.529 Y117.654 E.01295
G1 X116.529 Y119.334 E.0429
G1 X116.022 Y119.334 E.01295
G1 X116.022 Y117.655 E.04287
G1 X115.515 Y117.655 E.01295
G1 X115.515 Y119.334 E.04287
G1 X115.008 Y119.334 E.01295
G1 X115.008 Y117.655 E.04287
G1 X114.501 Y117.655 E.01295
G1 X114.501 Y119.334 E.04287
G1 X113.994 Y119.334 E.01295
G1 X113.994 Y117.655 E.04287
G1 X113.487 Y117.656 E.01295
G1 X113.487 Y119.334 E.04285
G1 X112.98 Y119.334 E.01295
G1 X112.98 Y117.656 E.04285
G1 X112.473 Y117.656 E.01295
G1 X112.473 Y119.334 E.04285
G1 X111.966 Y119.334 E.01295
G1 X111.966 Y117.656 E.04285
G1 X111.459 Y117.656 E.01295
G1 X111.459 Y119.334 E.04285
G1 X110.952 Y119.334 E.01295
G1 X110.952 Y117.657 E.04282
G1 X110.444 Y117.657 E.01297
G1 X110.444 Y119.334 E.04282
G1 X109.937 Y119.334 E.01295
G1 X109.937 Y117.657 E.04282
G1 X109.43 Y117.657 E.01295
G1 X109.43 Y119.334 E.04282
G1 X108.923 Y119.334 E.01295
G1 X108.923 Y117.657 E.04282
G1 X108.416 Y117.658 E.01295
G1 X108.416 Y119.334 E.04279
G1 X107.909 Y119.334 E.01295
G1 X107.909 Y117.658 E.04279
G1 X107.402 Y117.658 E.01295
G1 X107.402 Y119.334 E.04279
G1 X106.895 Y119.334 E.01295
G1 X106.895 Y117.658 E.04279
G1 X106.388 Y117.658 E.01295
G1 X106.388 Y119.334 E.04279
G1 X105.881 Y119.334 E.01295
G1 X105.881 Y117.659 E.04277
G1 X105.374 Y117.659 E.01295
G1 X105.374 Y119.334 E.04277
G1 X104.867 Y119.334 E.01295
G1 X104.867 Y117.659 E.04277
G1 X104.359 Y117.659 E.01297
G1 X104.359 Y119.334 E.04277
G1 X103.852 Y119.334 E.01295
G1 X103.852 Y117.66 E.04274
G1 X103.345 Y117.66 E.01295
G1 X103.345 Y119.334 E.04274
G1 X102.838 Y119.334 E.01295
G1 X102.838 Y117.66 E.04274
G1 X102.331 Y117.66 E.01295
G1 X102.331 Y119.334 E.04274
G1 X101.824 Y119.334 E.01295
G1 X101.824 Y117.4 E.04938
G1 X101.317 Y116.822 E.01963
G1 X101.317 Y119.334 E.06414
G1 X100.81 Y119.334 E.01295
G1 X100.81 Y115.768 E.09105
G1 X100.722 Y115.484 E.00759
G1 X100.549 Y111.444 E.10325
M204 S1000
;WIPE_START
G1 F8640
G1 X100.697 Y114.905 E-.8
;WIPE_END
G1 Z.6 F720
G1 X100.303 Y107.799 F10800
G1 Z.2 F720
G1 E.8 F2100
M204 S800
G1 F1200
G1 X100.303 Y119.334 E.29453
G1 X99.873 Y119.334 E.01098
G1 X99.873 Y107.799 E.29453
G1 X100.149 Y107.799 E.00705
M204 S1000
;WIPE_START
G1 F8640
G1 X99.873 Y107.799 E-.06373
G1 X99.873 Y110.988 E-.73627
;WIPE_END
G1 Z.6 F720
G1 X99.509 Y119.698 F10800
G1 Z.2 F720
G1 E.8 F2100
M204 S800
;TYPE:Support material
;WIDTH:0.42
G1 F1200
G1 X132.536 Y119.698 E1.03554
G1 X132.536 Y116.698 E.09406
G1 X135.115 Y116.698 E.08086
G1 X135.115 Y124.585 E.24729
M73 C62
G1 X96.929 Y124.585 E1.1973
G1 X96.929 Y116.698 E.24729
M73 Q0 S63
G1 X99.509 Y116.698 E.08089
G1 X99.509 Y119.641 E.09228
M204 S1000
G1 X99.509 Y119.641 F10800
G1 X134.457 Y124.415
M204 S800
G1 F1200
G1 X134.457 Y117.037 E.23133
G1 X134.038 Y117.037 E.01314
G1 X134.038 Y124.245 E.226
G1 X133.619 Y124.245 E.01314
G1 X133.619 Y117.037 E.226
G1 X133.2 Y117.037 E.01314
G1 X133.2 Y124.245 E.226
G1 X132.781 Y124.245 E.01314
G1 X132.781 Y120.037 E.13194
G1 X132.362 Y120.037 E.01314
G1 X132.362 Y124.245 E.13194
G1 X131.943 Y124.245 E.01314
G1 X131.943 Y120.037 E.13194
G1 X131.524 Y120.037 E.01314
G1 X131.524 Y124.245 E.13194
G1 X131.105 Y124.245 E.01314
G1 X131.105 Y120.037 E.13194
G1 X130.687 Y120.037 E.01311
G1 X130.687 Y124.245 E.13194
G1 X130.268 Y124.245 E.01314
G1 X130.268 Y120.037 E.13194
G1 X129.849 Y120.037 E.01314
G1 X129.849 Y124.245 E.13194
G1 X129.43 Y124.245 E.01314
G1 X129.43 Y120.037 E.13194
G1 X129.011 Y120.037 E.01314
G1 X129.011 Y124.245 E.13194
G1 X128.592 Y124.245 E.01314
G1 X128.592 Y120.037 E.13194
G1 X128.173 Y120.037 E.01314
G1 X128.173 Y124.245 E.13194
G1 X127.754 Y124.245 E.01314
G1 X127.754 Y120.037 E.13194
G1 X127.335 Y120.037 E.01314
G1 X127.335 Y124.245 E.13194
M73 Q1 S63
G1 X126.916 Y124.245 E.01314
M73 P1 R63
G1 X126.916 Y120.037 E.13194
G1 X126.497 Y120.037 E.01314
G1 X126.497 Y124.245 E.13194
G1 X126.078 Y124.245 E.01314
G1 X126.078 Y120.037 E.13194
G1 X125.659 Y120.037 E.01314
G1 X125.659 Y124.245 E.13194
G1 X125.24 Y124.245 E.01314
G1 X125.24 Y120.037 E.13194
G1 X124.821 Y120.037 E.01314
G1 X124.821 Y124.245 E.13194
G1 X124.402 Y124.245 E.01314
G1 X124.402 Y120.037 E.13194
G1 X123.983 Y120.037 E.01314
G1 X123.983 Y124.245 E.13194
G1 X123.564 Y124.245 E.01314
G1 X123.564 Y120.037 E.13194
G1 X123.145 Y120.037 E.01314
G1 X123.145 Y124.245 E.13194
G1 X122.726 Y124.245 E.01314
G1 X122.726 Y120.037 E.13194
G1 X122.307 Y120.037 E.01314
G1 X122.307 Y124.245 E.13194
G1 X121.888 Y124.245 E.01314
G1 X121.888 Y120.037 E.13194
G1 X121.469 Y120.037 E.01314
G1 X121.469 Y124.245 E.13194
G1 X121.05 Y124.245 E.01314
G1 X121.05 Y120.037 E.13194
G1 X120.631 Y120.037 E.01314
G1 X120.631 Y124.245 E.13194
G1 X120.212 Y124.245 E.01314
G1 X120.212 Y120.037 E.13194
G1 X119.793 Y120.037 E.01314
G1 X119.793 Y124.245 E.13194
G1 X119.374 Y124.245 E.01314
G1 X119.374 Y120.037 E.13194
G1 X118.955 Y120.037 E.01314
G1 X118.955 Y124.245 E.13194
G1 X118.536 Y124.245 E.01314
G1 X118.536 Y120.037 E.13194
G1 X118.117 Y120.037 E.01314
G1 X118.117 Y124.245 E.13194
G1 X117.698 Y124.245 E.01314
G1 X117.698 Y120.037 E.13194
G1 X117.279 Y120.037 E.01314
G1 X117.279 Y124.245 E.13194
G1 X116.86 Y124.245 E.01314
G1 X116.86 Y120.037 E.13194
G1 X116.441 Y120.037 E.01314
G1 X116.441 Y124.245 E.13194
G1 X116.022 Y124.245 E.01314
G1 X116.022 Y120.037 E.13194
G1 X115.603 Y120.037 E.01314
G1 X115.603 Y124.245 E.13194
G1 X115.184 Y124.245 E.01314
G1 X115.184 Y120.037 E.13194
G1 X114.765 Y120.037 E.01314
G1 X114.765 Y124.245 E.13194
G1 X114.346 Y124.245 E.01314
G1 X114.346 Y120.037 E.13194
G1 X113.927 Y120.037 E.01314
G1 X113.927 Y124.245 E.13194
G1 X113.508 Y124.245 E.01314
G1 X113.508 Y120.037 E.13194
G1 X113.089 Y120.037 E.01314
G1 X113.089 Y124.245 E.13194
G1 X112.67 Y124.245 E.01314
G1 X112.67 Y120.037 E.13194
G1 X112.252 Y120.037 E.01311
G1 X112.252 Y124.245 E.13194
G1 X111.833 Y124.245 E.01314
G1 X111.833 Y120.037 E.13194
G1 X111.414 Y120.037 E.01314
G1 X111.414 Y124.245 E.13194
G1 X110.995 Y124.245 E.01314
G1 X110.995 Y120.037 E.13194
G1 X110.576 Y120.037 E.01314
G1 X110.576 Y124.245 E.13194
G1 X110.157 Y124.245 E.01314
G1 X110.157 Y120.037 E.13194
G1 X109.738 Y120.037 E.01314
G1 X109.738 Y124.245 E.13194
G1 X109.319 Y124.245 E.01314
G1 X109.319 Y120.037 E.13194
G1 X108.9 Y120.037 E.01314
G1 X108.9 Y124.245 E.13194
G1 X108.481 Y124.245 E.01314
G1 X108.481 Y120.037 E.13194
G1 X108.062 Y120.037 E.01314
G1 X108.062 Y124.245 E.13194
G1 X107.643 Y124.245 E.01314
G1 X107.643 Y120.037 E.13194
G1 X107.224 Y120.037 E.01314
G1 X107.224 Y124.245 E.13194
G1 X106.805 Y124.245 E.01314
G1 X106.805 Y120.037 E.13194
G1 X106.386 Y120.037 E.01314
G1 X106.386 Y124.245 E.13194
G1 X105.967 Y124.245 E.01314
G1 X105.967 Y120.037 E.13194
G1 X105.548 Y120.037 E.01314
G1 X105.548 Y124.245 E.13194
G1 X105.129 Y124.245 E.01314
G1 X105.129 Y120.037 E.13194
G1 X104.71 Y120.037 E.01314
G1 X104.71 Y124.245 E.13194
G1 X104.291 Y124.245 E.01314
G1 X104.291 Y120.037 E.13194
G1 X103.872 Y120.037 E.01314
G1 X103.872 Y124.245 E.13194
G1 X103.453 Y124.245 E.01314
G1 X103.453 Y120.037 E.13194
G1 X103.034 Y120.037 E.01314
G1 X103.034 Y124.245 E.13194
G1 X102.615 Y124.245 E.01314
G1 X102.615 Y120.037 E.13194
G1 X102.196 Y120.037 E.01314
G1 X102.196 Y124.245 E.13194
G1 X101.777 Y124.245 E.01314
G1 X101.777 Y120.037 E.13194
G1 X101.358 Y120.037 E.01314
G1 X101.358 Y124.245 E.13194
G1 X100.939 Y124.245 E.01314
G1 X100.939 Y120.037 E.13194
G1 X100.52 Y120.037 E.01314
G1 X100.52 Y124.245 E.13194
G1 X100.101 Y124.245 E.01314
M73 P1 R62
G1 X100.101 Y120.037 E.13194
G1 X99.682 Y120.037 E.01314
G1 X99.682 Y124.245 E.13194
G1 X99.263 Y124.245 E.01314
G1 X99.263 Y120.037 E.13194
G1 X99.17 Y120.037 E.00292
G1 X99.17 Y117.037 E.09406
G1 X98.844 Y117.037 E.01022
G1 X98.844 Y124.245 E.226
G1 X98.425 Y124.245 E.01314
G1 X98.425 Y117.037 E.226
G1 X98.006 Y117.037 E.01314
G1 X98.006 Y124.245 E.226
G1 X97.587 Y124.245 E.01314
G1 X97.587 Y116.867 E.23133
M204 S1000
;WIPE_START
G1 F8640
G1 X97.587 Y120.332 E-.8
;WIPE_END
G1 Z.6 F720
G1 X99.509 Y92.013 F10800
G1 Z.2 F720
G1 E.8 F2100
M204 S800
G1 F1200
G1 X100.268 Y92.013 E.0238
G1 X100.453 Y102.54 E.33012
G1 X100.658 Y107.435 E.15361
G1 X99.509 Y107.435 E.03603
G1 X99.509 Y110.435 E.09406
G1 X96.929 Y110.435 E.08089
G1 X96.929 Y89.013 E.67167
G1 X99.509 Y89.013 E.08089
G1 X99.509 Y91.956 E.09228
M204 S1000
G1 X99.509 Y91.956 F10800
G1 X100.101 Y107.265
M204 S800
G1 F1200
G1 X100.101 Y101.819 E.17076
G1 X99.933 Y92.352 E.29688
G1 X99.682 Y92.352 E.00787
G1 X99.682 Y107.096 E.46229
G1 X99.263 Y107.096 E.01314
G1 X99.263 Y92.352 E.46229
G1 X99.17 Y92.352 E.00292
G1 X99.17 Y89.352 E.09406
G1 X98.844 Y89.352 E.01022
G1 X98.844 Y110.096 E.65041
G1 X98.425 Y110.096 E.01314
G1 X98.425 Y89.352 E.65041
G1 X98.006 Y89.352 E.01314
G1 X98.006 Y110.096 E.65041
G1 X97.587 Y110.096 E.01314
G1 X97.587 Y89.183 E.65571
M204 S1000
;WIPE_START
G1 F8640
M73 D62
G1 X97.587 Y92.648 E-.8
;WIPE_END
G1 Z.6 F720
G1 X100.182 Y89.56 F10800
G1 Z.2 F720
G1 E.8 F2100
M204 S800
;TYPE:Support material interface
;WIDTH:0.35
G1 F1200
G1 X100.01 Y89.734 E.00625
G1 X100.033 Y91.649 E.0489
G1 X99.873 Y91.649 E.00409
G1 X99.873 Y89.342 E.05891
G1 X100.303 Y89.342 E.01098
G1 X100.303 Y89.482 E.00357
G1 X100.81 Y89.482 E.01295
G1 X100.81 Y89.342 E.00357
G1 X101.317 Y89.342 E.01295
G1 X101.317 Y89.482 E.00357
G1 X101.824 Y89.482 E.01295
G1 X101.824 Y89.342 E.00357
G1 X102.18 Y89.342 E.00909
G1 X102.18 Y89.482 E.00357
G1 X101.978 Y89.482 E.00516
M204 S1000
G1 X101.978 Y89.482 F10800
G1 X102.543 Y89.272
M204 S800
;TYPE:Support material
;WIDTH:0.42
G1 F1200
G1 X102.543 Y89.013 E.00812
G1 X102.8 Y89.013 E.00806
G1 X102.583 Y89.232 E.00967
M204 S1000
;WIPE_START
G1 F8640
G1 X102.8 Y89.013 E-.07119
G1 X102.543 Y89.013 E-.05934
G1 X102.543 Y89.272 E-.0598
;WIPE_END
G1 E-.60967 F2100
G1 Z.6 F720
G1 X129.501 Y89.224 F10800
G1 Z.2 F720
G1 E.8 F2100
M204 S800
G1 F1200
G1 X129.293 Y89.013 E.00929
G1 X129.501 Y89.013 E.00652
G1 X129.501 Y89.168 E.00486
M204 S1000
G1 X129.501 Y89.168 F10800
G1 X130.067 Y89.459
M204 S800
;TYPE:Support material interface
;WIDTH:0.35
G1 F1200
G1 X129.865 Y89.459 E.00516
G1 X129.865 Y89.342 E.00299
G1 X130.221 Y89.342 E.00909
G1 X130.221 Y89.459 E.00299
G1 X130.728 Y89.459 E.01295
G1 X130.728 Y89.342 E.00299
G1 X131.235 Y89.342 E.01295
G1 X131.235 Y89.458 E.00296
G1 X131.742 Y89.456 E.01295
G1 X131.742 Y89.342 E.00291
G1 X132.172 Y89.342 E.01098
G1 X132.172 Y91.649 E.05891
G1 X132.023 Y91.649 E.0038
G1 X132.059 Y89.708 E.04957
G1 X131.87 Y89.517 E.00686
M204 S1000
;WIPE_START
G1 F8640
G1 X132.059 Y89.708 E-.06204
G1 X132.023 Y91.649 E-.44826
G1 X132.172 Y91.649 E-.0344
G1 X132.172 Y90.543 E-.2553
;WIPE_END
G1 Z.6 F720
G1 X135.115 Y110.435 F10800
G1 Z.2 F720
G1 E.8 F2100
M204 S800
;TYPE:Support material
;WIDTH:0.42
G1 F1200
G1 X132.536 Y110.435 E.08086
G1 X132.536 Y107.435 E.09406
G1 X131.387 Y107.435 E.03603
G1 X131.592 Y102.534 E.1538
G1 X131.779 Y92.013 E.32993
G1 X132.536 Y92.013 E.02374
G1 X132.536 Y89.013 E.09406
G1 X135.115 Y89.013 E.08086
G1 X135.115 Y110.379 E.66992
M204 S1000
G1 X135.115 Y110.379 F10800
G1 X134.457 Y110.265
M204 S800
G1 F1200
G1 X134.457 Y89.352 E.65571
G1 X134.038 Y89.352 E.01314
G1 X134.038 Y110.096 E.65041
G1 X133.619 Y110.096 E.01314
G1 X133.619 Y89.352 E.65041
G1 X133.2 Y89.352 E.01314
G1 X133.2 Y110.096 E.65041
G1 X132.875 Y110.096 E.01019
M73 P2 R62
M73 Q2 S63
G1 X132.875 Y107.096 E.09406
G1 X132.781 Y107.096 E.00295
